X:8
T:Duke of York's March
Z:Jack Campin  *  May 2000  *  http://www.campin.me.uk/
M:C|
L:1/8
C:Preston (1780)
V:1
V:2
K:D
V:1
D2 D>D F2 F>F| A>FA>F D2 A2       |d>Ad>A    dAFD   |A2A>A A2z2 |
V:2
D2 D>D F2 F>F| A>FA>F D2 A2       |d>Ad>A    dAFD   |A2A>A A2z2 |
V:1
a3   f DF d2 | e2 e>g f3  a       |a3   f    fdgf   |e2e>e e2z2:|
V:2
DF.A.A DF.A.A| EG.A.A DFAd        |f3   d    dBed   |A2A>A A2z2:|
V:1
A2 A>A Aefg  | A2 A>A Adfa        | geee     fddd   |bagf  f2e2 |
V:2
A2 A>A Acde  | A2 A>A AFAd        | cBBB     dddd   |gfed  d2c2 |
V:1
d3f/e/ dAB=c |=cB B4     c/d/e/f/ |.g.g.f.f .e.e.d.d|e2e>e e2z2 |
V:2
F8           | G6        A/B/c/d/ |.e.e.d.d .c.c.B.B|A2A>A A2z2 |
V:1
D2 D>D F2 F>F| A>FA>F D2 g2       | faaf     gedc   |A2A>A A2z2:|
V:2
D2 D>D F2 F>F| A>FA>F D2 B2       | A4       BGFE   |A2A>A A2z2:|

